**kern	**kern	**dynam
*part1	*part1	*part1
*staff2	*staff1	*
*I"Piano	*	*
*clefF4	*clefG2	*
*k[f#]	*k[f#]	*
=1	=1	=1
*	*^	*
2.G)	2b)	2d 2g	.
.	([4g	4B	.
=	=	=	=
(4GG	4b	4d 4g]	.
4AA	4a	4c#X 4e	.
4BB	4f#	4A 4d#X	.
=	=	=	=
2EE)	2e)	2G	.
*	*v	*v	*
!	!	!LO:DY:a
4EE 4E	(4B 4g	p
=	=	=
2DD 2D	4dn 4a	.
.	4B 4g	.
4DD 4D	4d 4a	.
=	=	=
!	!LO:TX:a:i:t=cresc.	!
2.GG 2.G	4g) 4b	.
.	4B 4g	.
.	4d 4a	.
=	=	=
*	*^	*
2GG 2G	4b	2g 2b	.
.	4ee	.	.
4FF# 4F#	4dd	4d 4a	.
=	=	=	=
2.GG 2.G	4b	4d 4g	.
.	4g	4B	.
.	4a	4d	.
*	*v	*v	*
=	=	=
*-	*-	*-
!!!system-decoration: {(s1,s2)}
